X: 12
T: Swinging On The Gate
Z: Fernando Durbán Galnares
S: https://thesession.org/tunes/236#setting46222
R: reel
M: 4/4
L: 1/8
K: Gmaj
|:"G"gedB G2AB|"Am"cABG AGEG|"G"DGBd g2fg|"D"eaag fdef|
"G"gedB G2AB|"Am"cABG AGEG|"Am"cABG AGEG|"D"DGGF "G"G2Bd:|
|:"G"gfga bgaf|"Em"gfed B2 AG|"Am"EGAB cBAG|"Am"FGAB "D"cdef|
"G"gfga bgaf|"Em"gfed B2 AB|"C"cABG "Am"AGEG|"D"DGGF "G"G2Bd:|

%-------------------- TUNE SEPARATOR --------------------%

